!!!SOCIAL_FUNCTION: war songs
!!!PDT:	1943
!!!LING_GROUP: Muskogean
!!!LANG: Non-Tone
Specific Region: Oklahoma, California, Mississippi, Louisiana, Texas, Alabama
!!!REG: Southeast
!!!COM: Anon.
!!!OTL: I am Going
!!!ODT: <1933//
!!!MPN: Lysander Tubby
!!!MLC: Philadelphia, Mississippi, United States of America
!! Song was recorded in January 1933.
!!!AGN: monody
!!!AMT: simple duple
!!!RWG: Transcribed pitches, durations, and meters are only approximate.
**kern
*ICvox
*Imale
*clefF4
*k[b-]
*M2/4
*MM60
=1-
4r
8.r
16B-
=2
8.A
16G
8.F
16G
=3
4.A
16r
16c
=4
16A
8G
16G
(8.F
16D)
=5
4F
8.r
16A
=6
8.G
16F
8.D
16F
=7
4.F
16r
16F
=8
8.F
16D
4F
=9
4F
8.r
16c
=10
8.c
16A
16A
8.F
=11
!! 1st ending
8.c
16A
4F
=12
!! repeat
16A
8G
16G
(8.F
16D)
=13
4F
8.r
16A
=14
8.G
16F
8.D
16F
=15
4.F
16r
16F
=16
8.F
16D
4F
=17
4F
8.r
16c
=18
8.c
16A
16A
8.F
=19
!! 2nd ending
8.c
16A
16G
8.F
=20
!! repeat
16A
8G
16G
(8.F
16D)
=21
4F
8.r
16A
=22
8.G
16F
8.D
16F
=23
4.F
16r
16F
=24
8.F
16D
4F
=25
4F
8.r
16c
=26
8.c
16A
16A
8.F
=27
!! 3rd ending
8.c
16A
16F
8.F
=28
4A
8.r
16c
=29
!! new repeated section
16A
8G
16G
(8.F
16D)
=30
4F
8.r
16A
=31
8.G
16F
8.D
16F
=32
4F
8.r
16F
=33
8.F
16D
4F
=34
4F
8.r
16c
=35
16A
8G
16G
(8.F
16D)
=36
4F
8.r
16A
=37
8.G
16F
8.D
16F
=38
4F
8.r
16F
=39
8.F
16D
4F
=40
2F
==
*-
!!!CNT: Choctaw
!!!TXO: Choctaw
!!!OCY: United States
!!!OCL: Frances Densmore
!!!YOR: Frances Densmore, "Choctaw Music"
!!!YOR: Bulletin 136, page 125, No. 3
!!!PPR: Smithsonian Institution, Bureau of American Ethnology
!!!PPR: Government Printing Office
!!!PDT: 1943
!!!PPP: Washington, DC, United States of America
!!!YEC: Electronic Copyright 2000 David Huron
!!!YER: August 2000
!!!YEN: United States of America
!!!ENC: David Huron
!!!RDT: August 27, 2000
!!!EEV: Release 1.0
!!!AIN: vox
